svgs/regular/square-chevron-down.svg

<svg xmlns="http://www.w3.org/2000/svg" viewBox="0 0 448 512"><!--! Font Awesome Pro 6.0.0-alpha3 by @fontawesome - https://fontawesome.com License - https://fontawesome.com/license (Commercial License) --><path d="M319 207L224 302.1L128.1 207c-9.375-9.375-24.56-9.375-33.94 0s-9.375 24.56 0 33.94l112 112C211.7 357.7 217.8 360 224 360s12.28-2.344 16.97-7.031l112-112c9.375-9.375 9.375-24.56 0-33.94S328.4 197.7 319 207zM384 32H64C28.65 32 0 60.66 0 96v320c0 35.34 28.65 64 64 64h320c35.35 0 64-28.66 64-64V96C448 60.66 419.3 32 384 32zM400 416c0 8.82-7.178 16-16 16H64c-8.822 0-16-7.18-16-16V96c0-8.82 7.178-16 16-16h320c8.822 0 16 7.18 16 16V416z"/></svg>

<svg xmlns="http://www.w3.org/2000/svg" viewBox="0 0 448 512"><!-- Font Awesome Pro 6.0.0-alpha2 by @fontawesome - https://fontawesome.com License - https://fontawesome.com/license (Commercial License) --><path d="M319.031 207.031L224 302.062L128.969 207.031C119.594 197.656 104.406 197.656 95.031 207.031S85.656 231.594 95.031 240.969L207.031 352.969C211.719 357.656 217.844 360 224 360S236.281 357.656 240.969 352.969L352.969 240.969C362.344 231.594 362.344 216.406 352.969 207.031S328.406 197.656 319.031 207.031ZM384 32H64C28.654 32 0 60.656 0 96V416C0 451.344 28.654 480 64 480H384C419.346 480 448 451.344 448 416V96C448 60.656 419.346 32 384 32ZM400 416C400 424.82 392.822 432 384 432H64C55.178 432 48 424.82 48 416V96C48 87.18 55.178 80 64 80H384C392.822 80 400 87.18 400 96V416Z"/></svg>
